X:1
T:Sligo Maid, The
R:reel
Z:id:hn-reel-116
M:C|
K:Ador
A2BA (3B^cd ef|gedB AGEF|G2BG dGBG|DEGA BGdB|
A2BA (3B^cd ef|gedB AGEG|~B3G ABGE|DEGA BA~A2:|
|:eaag a2ga|bgaf gfed|eggf ~g3e|dega bgag|
eaag a2ga|bgaf gfed|eg~g2 edB^c|dBgB BA~A2:|

